Newaita-dark/emblems/48/emblem-new.svg

<svg height="48" viewBox="0 0 48 48" width="48" xmlns="http://www.w3.org/2000/svg"><path d="m960.065849 215.097581c-44.405211 0-79.992365 35.74462-79.992365 79.992365v600.100205h-600.100205c-44.247746 0-79.992366 35.587155-79.992366 79.992366 0 44.247745 35.74462 79.992365 79.992366 79.992365h600.100205v599.94274c0 44.247745 35.587154 79.992365 79.992365 79.992365 44.247745 0 79.992365-35.74462 79.992365-79.992365v-599.94274h599.94274c44.247746 0 79.992366-35.74462 79.992366-79.992365 0-44.405211-35.74462-79.992366-79.992366-79.992366h-599.94274v-600.100205c0-44.247745-35.74462-79.992365-79.992365-79.992365zm0 0" fill="none" stroke="#424242" stroke-linecap="round" stroke-linejoin="round" stroke-width="309.921265" transform="scale(.0248071)"/><path d="m23.816406 5.335938c-1.101562 0-1.984375.886718-1.984375 1.984374v14.886719h-14.886719c-1.097656 0-1.984374.882813-1.984374 1.984375 0 1.097656.886718 1.984375 1.984374 1.984375h14.886719v14.882813c0 1.097656.882813 1.984375 1.984375 1.984375 1.097656 0 1.984375-.886719 1.984375-1.984375v-14.882813h14.882813c1.097656 0 1.984375-.886719 1.984375-1.984375 0-1.101562-.886719-1.984375-1.984375-1.984375h-14.882813v-14.886719c0-1.097656-.886719-1.984374-1.984375-1.984374zm0 0" fill="#fafafa"/></svg>

<?xml version="1.0" encoding="UTF-8"?>
<svg xmlns="http://www.w3.org/2000/svg" xmlns:xlink="http://www.w3.org/1999/xlink" width="48px" height="48px" viewBox="0 0 48 48" version="1.1">
<g id="surface1">
<path style="fill:none;stroke-width:309.921265;stroke-linecap:round;stroke-linejoin:round;stroke:rgb(25.882354%,25.882354%,25.882354%);stroke-opacity:1;stroke-miterlimit:4;" d="M 960.065849 215.097581 C 915.660638 215.097581 880.073484 250.842201 880.073484 295.089946 L 880.073484 895.190151 L 279.973279 895.190151 C 235.725533 895.190151 199.980913 930.777306 199.980913 975.182517 C 199.980913 1019.430262 235.725533 1055.174882 279.973279 1055.174882 L 880.073484 1055.174882 L 880.073484 1655.117622 C 880.073484 1699.365367 915.660638 1735.109987 960.065849 1735.109987 C 1004.313594 1735.109987 1040.058214 1699.365367 1040.058214 1655.117622 L 1040.058214 1055.174882 L 1640.000954 1055.174882 C 1684.2487 1055.174882 1719.99332 1019.430262 1719.99332 975.182517 C 1719.99332 930.777306 1684.2487 895.190151 1640.000954 895.190151 L 1040.058214 895.190151 L 1040.058214 295.089946 C 1040.058214 250.842201 1004.313594 215.097581 960.065849 215.097581 Z M 960.065849 215.097581 " transform="matrix(0.0248071,0,0,0.0248071,0,0)"/>
<path style=" stroke:none;fill-rule:nonzero;fill:rgb(98.039216%,98.039216%,98.039216%);fill-opacity:1;" d="M 23.816406 5.335938 C 22.714844 5.335938 21.832031 6.222656 21.832031 7.320312 L 21.832031 22.207031 L 6.945312 22.207031 C 5.847656 22.207031 4.960938 23.089844 4.960938 24.191406 C 4.960938 25.289062 5.847656 26.175781 6.945312 26.175781 L 21.832031 26.175781 L 21.832031 41.058594 C 21.832031 42.15625 22.714844 43.042969 23.816406 43.042969 C 24.914062 43.042969 25.800781 42.15625 25.800781 41.058594 L 25.800781 26.175781 L 40.683594 26.175781 C 41.78125 26.175781 42.667969 25.289062 42.667969 24.191406 C 42.667969 23.089844 41.78125 22.207031 40.683594 22.207031 L 25.800781 22.207031 L 25.800781 7.320312 C 25.800781 6.222656 24.914062 5.335938 23.816406 5.335938 Z M 23.816406 5.335938 "/>
</g>
</svg>
